X:725
T:Sergt. Early's Jig
M:6/8
L:1/8
R:jig
B:O'Neill's 725
N:"collected by Early"
Z:transcribed by mvhplank
K:D
A|FED EFG|AGE c2 e|dcA (e<f)d|ecA A2 G|\
FED EFG|AGE c2 e|dcA GEA|DED D2:|
||d|cBA Bcd|efe e2 d|dcd (e<f)d|ecA A2 d|\
cBA Bcd|eag e2 d|dcA GEA|DED D2:|


